X:2346
T:Fyr Anders stjuls
A:Dalarna - Rättvik
D:Falu Spelmanslag 'i Stoten'
M:2/4
O:Sweden
R:Polka
Z:Richard Robinson <URL:http://www.qualmograph.org.uk/contact.html>
K:A
A,2CE A,2CE| DFAF DFAF| E2GB E2GB|1,3 B2AB c2A2:|2,4 B2AG A4|:
A2ce agfe| dcBc d4| fedB G4| fecA E4|A2ce agfe| dcBc d2^d2| e4 gegb| b2ag a4:|

